!!!COA: des Prez, Josquin
!!!CDT: ~1450-1521/08/27
!!!OTL: O dulcis amica
!!!AGN: Motet
!!!SCT: NJE 26.9
!!!SCA: New Josquin Edition 26.9
!!!voices: 6
!!!OTL: Jos2609-O_dulcis_amica
!!!ONB: unicum in Kriesstein 1540
**kern	**text	**kern	**text	**kern	**text	**kern	**text	**kern	**text	**kern	**text
*part6	*part6	*part5	*part5	*part4	*part4	*part3	*part3	*part2	*part2	*part1	*part1
*staff6	*staff6	*staff5	*staff5	*staff4	*staff4	*staff3	*staff3	*staff2	*staff2	*staff1	*staff1
*Ivox	*	*Ivox	*	*Ivox	*	*Ivox	*	*Ivox	*	*Ivox	*
*I"[6]	*	*I"[5]	*	*I"[4]	*	*I"[3]	*	*I"[2]	*	*I"[1]	*
*I'6	*	*I'5	*	*I'4	*	*I'3	*	*I'2	*	*I'1	*
*clefGv2	*	*clefGv2	*	*clefG2	*	*clefG2	*	*clefG2	*	*clefG2	*
*k[]	*	*k[]	*	*k[]	*	*k[]	*	*k[]	*	*k[]	*
*C:	*	*C:	*	*C:	*	*C:	*	*C:	*	*C:	*
*M2/1	*	*M2/1	*	*M2/1	*	*M2/1	*	*M2/1	*	*M2/1	*
*met(C)	*	*met(C)	*	*met(C)	*	*met(C)	*	*met(C)	*	*met(C)	*
=	=	=	=	=	=	=	=	=	=	=	=
!	!	!	!	!	!	!	!	!	!	!LO:TX:Z=32:t=Fuga, Sex vocum, Cuiusvis Toni.	!
!	!	!	!	!	!	!	!	!	!	!LO:TX:Z=12:t=(6-ex-1 canon at the upper second)	!
1G	O	0r	.	0r	.	0r	.	0r	.	0r	.
2G	dul-	.	.	.	.	.	.	.	.	.	.
2G	-cis	.	.	.	.	.	.	.	.	.	.
=3	=3	=3	=3	=3	=3	=3	=3	=3	=3	=3	=3
2A	a-	1A	O	0r	.	0r	.	0r	.	0r	.
2.F	-mi-	.	.	.	.	.	.	.	.	.	.
.	.	2A	dul-	.	.	.	.	.	.	.	.
4G	.	.	.	.	.	.	.	.	.	.	.
2A	.	2A	-cis	.	.	.	.	.	.	.	.
=4	=4	=4	=4	=4	=4	=4	=4	=4	=4	=4	=4
1G	-ca	2B	a-	1B	O	0r	.	0r	.	0r	.
.	.	2.G	-mi-	.	.	.	.	.	.	.	.
1G	.	.	.	2B	dul-	.	.	.	.	.	.
.	.	4A	.	.	.	.	.	.	.	.	.
.	.	2B	.	2B	-cis	.	.	.	.	.	.
=5	=5	=5	=5	=5	=5	=5	=5	=5	=5	=5	=5
2.F	.	1A	-ca	2c	a-	1c	O	0r	.	0r	.
.	.	.	.	2.A	-mi-	.	.	.	.	.	.
4G	.	.	.	.	.	.	.	.	.	.	.
2A	.	1A	.	.	.	2c	dul-	.	.	.	.
.	.	.	.	4B	.	.	.	.	.	.	.
2F	.	.	.	2c	.	2c	-cis	.	.	.	.
=6	=6	=6	=6	=6	=6	=6	=6	=6	=6	=6	=6
2B	.	2.G	.	1B	-ca	2d	a-	1d	O	0r	.
2.G	.	.	.	.	.	2.B	-mi-	.	.	.	.
.	.	4A	.	.	.	.	.	.	.	.	.
.	.	2B	.	1B	.	.	.	2d	dul-	.	.
4A	.	.	.	.	.	4c	.	.	.	.	.
2B	.	2G	.	.	.	2d	.	2d	-cis	.	.
=7	=7	=7	=7	=7	=7	=7	=7	=7	=7	=7	=7
0c	&	2c	.	2.A	.	1c	-ca	2e	a-	1e	O
.	.	2.A	.	.	.	.	.	2.c	-mi-	.	.
.	.	.	.	4B	.	.	.	.	.	.	.
.	.	.	.	2c	.	1c	.	.	.	2e	dul-
.	.	4B	.	.	.	.	.	4d	.	.	.
.	.	2c	.	2A	.	.	.	2e	.	2e	-cis
=8	=8	=8	=8	=8	=8	=8	=8	=8	=8	=8	=8
0r	.	0d	&	2d	.	2.B	.	1d	-ca	2f	a-
.	.	.	.	2.B	.	.	.	.	.	2.d	-mi-
.	.	.	.	.	.	4c	.	.	.	.	.
.	.	.	.	.	.	2d	.	1d	.	.	.
.	.	.	.	4c	.	.	.	.	.	4e	.
.	.	.	.	2d	.	2B	.	.	.	2f	.
=9	=9	=9	=9	=9	=9	=9	=9	=9	=9	=9	=9
*M2/1	*	*	*	*	*	*	*	*	*	*	*
*met(3)	*	*	*	*	*	*	*	*	*	*	*
3%4c	.	0r	.	0e	&	2e	.	2.c	.	1e	-ca
.	.	.	.	.	.	2.c	.	.	.	.	.
.	.	.	.	.	.	.	.	4d	.	.	.
.	.	.	.	.	.	.	.	2e	.	1e	.
.	.	.	.	.	.	4d	.	.	.	.	.
3%2c	.	.	.	.	.	.	.	.	.	.	.
.	.	.	.	.	.	2e	.	2c	.	.	.
=10	=10	=10	=10	=10	=10	=10	=10	=10	=10	=10	=10
*	*	*M2/1	*	*	*	*	*	*	*	*	*
*	*	*met(3)	*	*	*	*	*	*	*	*	*
3%2d	.	3%4d	.	0r	.	0f	&	2f	.	2.d	.
.	.	.	.	.	.	.	.	2.d	.	.	.
3%2B	.	.	.	.	.	.	.	.	.	.	.
.	.	.	.	.	.	.	.	.	.	4e	.
.	.	.	.	.	.	.	.	.	.	2f	.
.	.	.	.	.	.	.	.	4e	.	.	.
3%2d	.	3%2d	.	.	.	.	.	.	.	.	.
.	.	.	.	.	.	.	.	2f	.	2d	.
=11	=11	=11	=11	=11	=11	=11	=11	=11	=11	=11	=11
*	*	*	*	*M2/1	*	*	*	*	*	*	*
*	*	*	*	*met(3)	*	*	*	*	*	*	*
3%2c	.	3%2e	.	3%4e	.	0r	.	0g	&	2g	.
.	.	.	.	.	.	.	.	.	.	2.e	.
3%4c	.	3%2c	.	.	.	.	.	.	.	.	.
.	.	.	.	.	.	.	.	.	.	4f	.
.	.	3%2e	.	3%2e	.	.	.	.	.	.	.
.	.	.	.	.	.	.	.	.	.	2g	.
=12	=12	=12	=12	=12	=12	=12	=12	=12	=12	=12	=12
*M2/1	*	*	*	*	*	*M2/1	*	*	*	*	*
*met(C|)	*	*	*	*	*	*met(3)	*	*	*	*	*
0f	.	3%2d	.	3%2f	.	3%4f	.	0r	.	0a	&
.	.	3%4d	.	3%2d	.	.	.	.	.	.	.
.	.	.	.	3%2f	.	3%2f	.	.	.	.	.
=13	=13	=13	=13	=13	=13	=13	=13	=13	=13	=13	=13
*	*	*M2/1	*	*	*	*	*	*M2/1	*	*	*
*	*	*met(C|)	*	*	*	*	*	*met(3)	*	*	*
0r	.	0g	.	3%2e	.	3%2g	.	3%4g	.	0r	.
.	.	.	.	3%4e	.	3%2e	.	.	.	.	.
.	.	.	.	.	.	3%2g	.	3%2g	.	.	.
=14	=14	=14	=14	=14	=14	=14	=14	=14	=14	=14	=14
*	*	*	*	*M2/1	*	*	*	*	*	*M2/1	*
*	*	*	*	*met(C|)	*	*	*	*	*	*met(3)	*
2.d	.	0r	.	0a	.	3%2f	.	3%2a	.	3%4a	.
.	.	.	.	.	.	3%4f	.	3%2f	.	.	.
4e	.	.	.	.	.	.	.	.	.	.	.
2f	.	.	.	.	.	.	.	.	.	.	.
.	.	.	.	.	.	.	.	3%2a	.	3%2a	.
2d	.	.	.	.	.	.	.	.	.	.	.
=15	=15	=15	=15	=15	=15	=15	=15	=15	=15	=15	=15
*	*	*	*	*	*	*M2/1	*	*	*	*	*
*	*	*	*	*	*	*met(C|)	*	*	*	*	*
1g	.	2.e	.	0r	.	0b	.	3%2g	.	3%2b	.
.	.	.	.	.	.	.	.	3%4g	.	3%2g	.
.	.	4f	.	.	.	.	.	.	.	.	.
1g	.	2g	.	.	.	.	.	.	.	.	.
.	.	.	.	.	.	.	.	.	.	3%2b	.
.	.	2e	.	.	.	.	.	.	.	.	.
=16	=16	=16	=16	=16	=16	=16	=16	=16	=16	=16	=16
*	*	*	*	*	*	*	*	*M2/1	*	*	*
*	*	*	*	*	*	*	*	*met(C|)	*	*	*
2.f	.	1a	.	2.f	.	0r	.	0cc	.	3%2a	.
.	.	.	.	.	.	.	.	.	.	3%4a	.
4e	.	.	.	4g	.	.	.	.	.	.	.
1f	.	1a	.	2a	.	.	.	.	.	.	.
.	.	.	.	2f	.	.	.	.	.	.	.
=17	=17	=17	=17	=17	=17	=17	=17	=17	=17	=17	=17
*	*	*	*	*	*	*	*	*	*	*M2/1	*
*	*	*	*	*	*	*	*	*	*	*met(C|)	*
0g	.	2.g	.	1b	.	2.g	.	0r	.	0dd	.
.	.	4f	.	.	.	4a	.	.	.	.	.
.	.	1g	.	1b	.	2b	.	.	.	.	.
.	.	.	.	.	.	2g	.	.	.	.	.
=18	=18	=18	=18	=18	=18	=18	=18	=18	=18	=18	=18
0r	.	0a	.	2.a	.	1cc	.	2.a	.	0r	.
.	.	.	.	4g	.	.	.	4b	.	.	.
.	.	.	.	1a	.	1cc	.	2cc	.	.	.
.	.	.	.	.	.	.	.	2a	.	.	.
=19	=19	=19	=19	=19	=19	=19	=19	=19	=19	=19	=19
1G	.	0r	.	0b	.	2.b	.	1dd	.	2.b	.
.	.	.	.	.	.	4a	.	.	.	4cc	.
2G	.	.	.	.	.	1b	.	1dd	.	2dd	.
2G	.	.	.	.	.	.	.	.	.	2b	.
=20	=20	=20	=20	=20	=20	=20	=20	=20	=20	=20	=20
1c	.	1A	.	0r	.	0cc	.	2.cc	.	1ee	.
.	.	.	.	.	.	.	.	4b	.	.	.
1c	.	2A	.	.	.	.	.	1cc	.	1ee	.
.	.	2A	.	.	.	.	.	.	.	.	.
=21	=21	=21	=21	=21	=21	=21	=21	=21	=21	=21	=21
0G	.	1d	.	1B	.	0r	.	0dd	.	2.dd	.
.	.	.	.	.	.	.	.	.	.	4cc	.
.	.	1d	.	2B	.	.	.	.	.	1dd	.
.	.	.	.	2B	.	.	.	.	.	.	.
=22	=22	=22	=22	=22	=22	=22	=22	=22	=22	=22	=22
0c	.	0A	.	1e	.	1c	.	0r	.	0ee	.
.	.	.	.	1e	.	2c	.	.	.	.	.
.	.	.	.	.	.	2c	.	.	.	.	.
=23	=23	=23	=23	=23	=23	=23	=23	=23	=23	=23	=23
0r	.	0d	.	0B	.	1f	.	1d	.	0r	.
.	.	.	.	.	.	1f	.	2d	.	.	.
.	.	.	.	.	.	.	.	2d	.	.	.
=24	=24	=24	=24	=24	=24	=24	=24	=24	=24	=24	=24
0c	.	0r	.	0e	.	0c	.	1g	.	1e	.
.	.	.	.	.	.	.	.	1g	.	2e	.
.	.	.	.	.	.	.	.	.	.	2e	.
=25	=25	=25	=25	=25	=25	=25	=25	=25	=25	=25	=25
1d	.	0d	.	0r	.	0f	.	0d	.	1a	.
1d	.	.	.	.	.	.	.	.	.	1a	.
=26	=26	=26	=26	=26	=26	=26	=26	=26	=26	=26	=26
1c	.	1e	.	0e	.	0r	.	0g	.	0e	.
1c	.	1e	.	.	.	.	.	.	.	.	.
=27	=27	=27	=27	=27	=27	=27	=27	=27	=27	=27	=27
1r	.	1d	.	1f	.	0f	.	0r	.	0a	.
1F	.	1d	.	1f	.	.	.	.	.	.	.
=28	=28	=28	=28	=28	=28	=28	=28	=28	=28	=28	=28
0B	.	1r	.	1e	.	1g	.	0g	.	0r	.
.	.	1G	.	1e	.	1g	.	.	.	.	.
=29	=29	=29	=29	=29	=29	=29	=29	=29	=29	=29	=29
!LO:TX:Z=24:t=Repeat sign indicates	!	!	!	!	!	!	!	!	!	!	!
!LO:TX:Z=8:t=three further statements.	!	!	!	!	!	!	!	!	!	!	!
0Fl	.	0c	.	1r	.	1f	.	1a	.	0a	.
.	.	.	.	1A	.	1f	.	1a	.	.	.
=30	=30	=30	=30	=30	=30	=30	=30	=30	=30	=30	=30
0r	.	0Gl	.	0d	.	1r	.	1g	.	1b	.
.	.	.	.	.	.	1B	.	1g	.	1b	.
=31	=31	=31	=31	=31	=31	=31	=31	=31	=31	=31	=31
0r	.	0r	.	0Al	.	0e	.	1r	.	1a	.
.	.	.	.	.	.	.	.	1c	.	1a	.
=32	=32	=32	=32	=32	=32	=32	=32	=32	=32	=32	=32
0r	.	0r	.	0r	.	0Bl	.	0f	.	1r	.
.	.	.	.	.	.	.	.	.	.	1d	.
=33	=33	=33	=33	=33	=33	=33	=33	=33	=33	=33	=33
0r	.	0r	.	0r	.	0r	.	0cl	.	0g	.
=34	=34	=34	=34	=34	=34	=34	=34	=34	=34	=34	=34
0r	.	0r	.	0r	.	0r	.	0r	.	0dl	.
=	=	=	=	=	=	=	=	=	=	=	=
*-	*-	*-	*-	*-	*-	*-	*-	*-	*-	*-	*-
!!!RDF**kern: l=long note in original notation
!!!system-decoration: s1,s2,s3,s4,s5,s6
!!!ENC: Jesse Rodin 8/23/2013
!!!END: 2020/10/21
!!!EED: Jesse Rodin
!!!EEV: 2020/10/23
!!attribution-level@Jos: 4a (the rest [double question mark])
!!!ONB: Translated from MusicXML and edited on 2020/03/22 by Craig Sapp
!!muse2ps: C^@{COA}?? (unicum in Kriesstein 1540)\n@{SCT}^i2I150v75,75,75,75,75,100Q16
